**kern	**silbe	**kern	**silbe	**harmony	**phrase	**leadinstrument	**rhyme	**timestamp	**harte
*ICvox	*	*ICvox	*	*M4/4	*	*	*	*	*M4/4
*Imale	*	*Imale	*	*	*	*	*	*	*
*VRlead	*	*VRlead	*	*	*	*	*	*	*
*Hstimme	*	*Nstimme	*	*	*	*	*	*	*
*G:	*	*G:	*	*G:	*	*	*	*	*G:
*M4/4	*	*M4/4	*	*	*	*	*	*	*
*clefG2	*	*clefG2	*	*	*	*	*	*	*
r;	.	r;	.	1r;	.	r	.	0	N.C.
=1	=1	=1	=1	=1	=1	=1	=1	=1	=1
*>Letter>A	*>Letter>A	*>Letter>A	*>Letter>A	*>Letter>A	*>Letter>A	*>Letter>A	*>Letter>A	*>Letter>A	*>Letter>A
*>Label>Intro	*>Label>Intro	*>Label>Intro	*>Label>Intro	*>Label>Intro	*>Label>Intro	*>Label>Intro	*>Label>Intro	*>Label>Intro	*>Label>Intro
1r	.	1r	.	1GM	newline	guitar	.	0.232	G:maj
=2	=2	=2	=2	=2	=2	=2	=2	=2	=2
1r	.	1r	.	1GM	.	guitar	.	2.54	G:maj
=3	=3	=3	=3	=3	=3	=3	=3	=3	=3
1r	.	1r	.	1GM	.	guitar	.	4.848	G:maj
=4	=4	=4	=4	=4	=4	=4	=4	=4	=4
1r	.	1r	.	1GM	.	guitar	.	7.157	G:maj
=5	=5	=5	=5	=5	=5	=5	=5	=5	=5
*>Letter>B	*>Letter>B	*>Letter>B	*>Letter>B	*>Letter>B	*>Letter>B	*>Letter>B	*>Letter>B	*>Letter>B	*>Letter>B
*>Label>Verse	*>Label>Verse	*>Label>Verse	*>Label>Verse	*>Label>Verse	*>Label>Verse	*>Label>Verse	*>Label>Verse	*>Label>Verse	*>Label>Verse
8E	sit-	1r	.	1GM	newline	voice	.	9.465	G:maj
8G	-tin	.	.	.	.	.	.	.	.
8G	in	.	.	.	.	.	.	.	.
8G	the	.	.	.	.	.	.	.	.
8A	morn-	.	.	.	.	.	.	.	.
8G	_	.	.	.	.	.	.	.	.
8G	-in	.	.	.	.	.	.	.	.
8B-	sun	.	.	.	.	.	A	.	.
=6	=6	=6	=6	=6	=6	=6	=6	=6	=6
4B	_	1r	.	1BM	.	voice	.	11.787	B:maj
2r	.	.	.	.	.	.	.	.	.
8B	I'll	.	.	.	.	.	.	.	.
8B	be	.	.	.	.	.	.	.	.
=7	=7	=7	=7	=7	=7	=7	=7	=7	=7
8c	sit-	1r	.	1CM	.	voice	.	14.109	C:maj
8c	-tin	.	.	.	.	.	.	.	.
8c	when	.	.	.	.	.	.	.	.
8c	the	.	.	.	.	.	.	.	.
8c	eve-	.	.	.	.	.	.	.	.
8B	_	.	.	.	.	.	.	.	.
8B-	-ning	.	.	.	.	.	.	.	.
16A	comes	.	.	.	.	.	A	.	.
16B	_	.	.	.	.	.	.	.	.
=8	=8	=8	=8	=8	=8	=8	=8	=8	=8
4A	_	1r	.	1AM	.	voice	.	16.431	A:maj
4r	.	.	.	.	.	.	.	.	.
2r	.	.	.	.	.	.	.	.	.
=9	=9	=9	=9	=9	=9	=9	=9	=9	=9
8E	watch-	1r	.	1GM	newline	voice	.	18.753	G:maj
4G	-in	.	.	.	.	.	.	.	.
8G	the	.	.	.	.	.	.	.	.
4A	ships	.	.	.	.	.	.	.	.
8G	roll	.	.	.	.	.	.	.	.
16B-	in	.	.	.	.	.	B	.	.
[16B	_	.	.	.	.	.	.	.	.
=10	=10	=10	=10	=10	=10	=10	=10	=10	=10
16B]	_	1r	.	1BM	.	voice	.	21.07	B:maj
16A	_	.	.	.	.	.	.	.	.
8G	_	.	.	.	.	.	.	.	.
4r	.	.	.	.	.	.	.	.	.
8r	.	.	.	.	.	.	.	.	.
8B	and	.	.	.	.	.	.	.	.
8B	then	.	.	.	.	.	.	.	.
8B	I	.	.	.	.	.	.	.	.
=11	=11	=11	=11	=11	=11	=11	=11	=11	=11
8c	watch	1r	.	1CM	.	voice	.	23.388	C:maj
8c	'em	.	.	.	.	.	.	.	.
8c	roll	.	.	.	.	.	.	.	.
8c	a-	.	.	.	.	.	.	.	.
8d	-way	.	.	.	.	.	C	.	.
8B	_	.	.	.	.	.	.	.	.
8B	a-	.	.	.	.	.	.	.	.
8B	-gain	.	.	.	.	.	B	.	.
=12	=12	=12	=12	=12	=12	=12	=12	=12	=12
4A	_	1r	.	1AM	.	voice	.	25.705	A:maj
8r	.	.	.	.	.	.	.	.	.
16B	yeah	.	.	.	.	.	.	.	.
16A	_	.	.	.	.	.	.	.	.
8G	_	.	.	.	.	.	.	.	.
8r	.	.	.	.	.	.	.	.	.
8r	.	.	.	.	.	.	.	.	.
8E	I'm	.	.	.	.	.	.	.	.
=13	=13	=13	=13	=13	=13	=13	=13	=13	=13
*>Letter>C	*>Letter>C	*>Letter>C	*>Letter>C	*>Letter>C	*>Letter>C	*>Letter>C	*>Letter>C	*>Letter>C	*>Letter>C
*>Label>Chorus	*>Label>Chorus	*>Label>Chorus	*>Label>Chorus	*>Label>Chorus	*>Label>Chorus	*>Label>Chorus	*>Label>Chorus	*>Label>Chorus	*>Label>Chorus
8G	sit-	1r	.	1GM	newline	voice	.	28.022	G:maj
8G	-tin	.	.	.	.	.	.	.	.
8G	on	.	.	.	.	.	.	.	.
8G	the	.	.	.	.	.	.	.	.
8G	dock	.	.	.	.	.	.	.	.
8G	of	.	.	.	.	.	.	.	.
8G	the	.	.	.	.	.	.	.	.
8A	bay	.	.	.	.	.	C	.	.
=14	=14	=14	=14	=14	=14	=14	=14	=14	=14
16G	_	1r	.	1Em	.	voice	.	30.34	E:min(9)
16E	_	.	.	.	.	.	.	.	.
8r	.	.	.	.	.	.	.	.	.
4r	.	.	.	.	.	.	.	.	.
8A	watch-	.	.	.	.	.	.	.	.
8B	-in	.	.	.	.	.	.	.	.
8B	the	.	.	.	.	.	.	.	.
16d	tide	.	.	.	.	.	.	.	.
16e	_	.	.	.	.	.	.	.	.
=15	=15	=15	=15	=15	=15	=15	=15	=15	=15
8d	_	1r	.	1GM	.	voice	.	32.658	G:maj
16B	_	.	.	.	.	.	.	.	.
16A	_	.	.	.	.	.	.	.	.
8G	_	.	.	.	.	.	.	.	.
8r	.	.	.	.	.	.	.	.	.
8B	roll	.	.	.	.	.	.	.	.
8A	_	.	.	.	.	.	.	.	.
8G	a-	.	.	.	.	.	.	.	.
8A	-way	.	.	.	.	.	C	.	.
=16	=16	=16	=16	=16	=16	=16	=16	=16	=16
16G	_	1r	.	1Em	.	voice	.	34.976	E:min(9)
16E	_	.	.	.	.	.	.	.	.
8r	.	.	.	.	.	.	.	.	.
8r	.	.	.	.	.	.	.	.	.
8e	ooh	.	.	.	.	.	.	.	.
8G	_	.	.	.	.	.	.	.	.
8A	I'm	.	.	.	.	.	.	.	.
4A	just	.	.	.	.	.	.	.	.
=17	=17	=17	=17	=17	=17	=17	=17	=17	=17
8G	sit-	1r	.	1GM	newline	voice	.	37.294	G:maj
8G	-tin	.	.	.	.	.	.	.	.
8G	on	.	.	.	.	.	.	.	.
8G	the	.	.	.	.	.	.	.	.
8G	dock	.	.	.	.	.	.	.	.
8G	of	.	.	.	.	.	.	.	.
8G	the	.	.	.	.	.	.	.	.
8A	bay	.	.	.	.	.	C	.	.
=18	=18	=18	=18	=18	=18	=18	=18	=18	=18
16G	_	1r	.	1AM	.	voice	.	39.6	A:maj
16E	_	.	.	.	.	.	.	.	.
8r	.	.	.	.	.	.	.	.	.
4r	.	.	.	.	.	.	.	.	.
8A	wast-	.	.	.	.	.	C	.	.
8G	_	.	.	.	.	.	.	.	.
8E	-in	.	.	.	.	.	.	.	.
[8G	time	.	.	.	.	.	.	.	.
=19	=19	=19	=19	=19	=19	=19	=19	=19	=19
4.G]	_	1r	.	1GM	.	voice	.	41.905	G:maj
16B	_	.	.	.	.	.	.	.	.
16A	_	.	.	.	.	.	.	.	.
2G	_	.	.	.	.	.	.	.	.
=20	=20	=20	=20	=20	=20	=20	=20	=20	=20
2E	_	1r	.	1EM	.	voice	.	44.211	E:maj
4r	.	.	.	.	.	.	.	.	.
8r	.	.	.	.	.	.	.	.	.
8E	I	.	.	.	.	.	.	.	.
=21	=21	=21	=21	=21	=21	=21	=21	=21	=21
*>Letter>B	*>Letter>B	*>Letter>B	*>Letter>B	*>Letter>B	*>Letter>B	*>Letter>B	*>Letter>B	*>Letter>B	*>Letter>B
*>Label>Verse	*>Label>Verse	*>Label>Verse	*>Label>Verse	*>Label>Verse	*>Label>Verse	*>Label>Verse	*>Label>Verse	*>Label>Verse	*>Label>Verse
8G	left	1r	.	1GM	newline	voice	.	46.517	G:maj
4.G	my	.	.	.	.	.	.	.	.
8A	home	.	.	.	.	.	.	.	.
8G	_	.	.	.	.	.	.	.	.
8G	in	.	.	.	.	.	.	.	.
8B-	Georg-	.	.	.	.	.	D	.	.
=22	=22	=22	=22	=22	=22	=22	=22	=22	=22
8B	-ia	1r	.	1BM	.	voice	.	48.852	B:maj
16B	_	.	.	.	.	.	.	.	.
16A	_	.	.	.	.	.	.	.	.
8G	_	.	.	.	.	.	.	.	.
8r	.	.	.	.	.	.	.	.	.
4r	.	.	.	.	.	.	.	.	.
8r	.	.	.	.	.	.	.	.	.
[8c	head-	.	.	.	.	.	.	.	.
=23	=23	=23	=23	=23	=23	=23	=23	=23	=23
8c]	_	1r	.	1CM	.	voice	.	51.188	C:maj
8c	-ed	.	.	.	.	.	.	.	.
8c	for	.	.	.	.	.	.	.	.
8c	the	.	.	.	.	.	.	.	.
8c	'Fris-	.	.	.	.	.	.	.	.
4B	-co	.	.	.	.	.	.	.	.
8B	bay	.	.	.	.	.	C	.	.
=24	=24	=24	=24	=24	=24	=24	=24	=24	=24
4A	_	1r	.	1AM	.	voice	.	53.523	A:maj
4r	.	.	.	.	.	.	.	.	.
4r	.	.	.	.	.	.	.	.	.
8r	.	.	.	.	.	.	.	.	.
8E	'cause	.	.	.	.	.	.	.	.
=25	=25	=25	=25	=25	=25	=25	=25	=25	=25
8G	I've	1r	.	1GM	newline	voice	.	55.858	G:maj
4.G	had	.	.	.	.	.	.	.	.
8A	no-	.	.	.	.	.	.	.	.
8G	-thing	.	.	.	.	.	.	.	.
8G	to	.	.	.	.	.	.	.	.
16B-	live	.	.	.	.	.	.	.	.
[16B	_	.	.	.	.	.	.	.	.
=26	=26	=26	=26	=26	=26	=26	=26	=26	=26
8B]	_	1r	.	1BM	.	voice	.	58.213	B:maj
16B	for	.	.	.	.	.	D	.	.
16A	_	.	.	.	.	.	.	.	.
8G	_	.	.	.	.	.	.	.	.
8r	.	.	.	.	.	.	.	.	.
8r	.	.	.	.	.	.	.	.	.
8G	and	.	.	.	.	.	.	.	.
8B	look	.	.	.	.	.	.	.	.
8B	like	.	.	.	.	.	.	.	.
=27	=27	=27	=27	=27	=27	=27	=27	=27	=27
8c	no-	1r	.	1CM	.	voice	.	60.567	C:maj
8c	-thin's	.	.	.	.	.	.	.	.
8c	gon-	.	.	.	.	.	.	.	.
8c	-na	.	.	.	.	.	.	.	.
8c	come	.	.	.	.	.	.	.	.
8B	my	.	.	.	.	.	.	.	.
8B-	_	.	.	.	.	.	.	.	.
[8A	way	.	.	.	.	.	C	.	.
=28	=28	=28	=28	=28	=28	=28	=28	=28	=28
8A]	_	1r	.	1AM	.	voice	.	62.922	A:maj
8r	.	.	.	.	.	.	.	.	.
8r	.	.	.	.	.	.	.	.	.
16B	So	.	.	.	.	.	.	.	.
16A	_	.	.	.	.	.	.	.	.
8G	_	.	.	.	.	.	.	.	.
8G	I'm	.	.	.	.	.	.	.	.
8G	just	.	.	.	.	.	.	.	.
8E	gon'	.	.	.	.	.	.	.	.
=29	=29	=29	=29	=29	=29	=29	=29	=29	=29
*>Letter>C	*>Letter>C	*>Letter>C	*>Letter>C	*>Letter>C	*>Letter>C	*>Letter>C	*>Letter>C	*>Letter>C	*>Letter>C
*>Label>Chorus	*>Label>Chorus	*>Label>Chorus	*>Label>Chorus	*>Label>Chorus	*>Label>Chorus	*>Label>Chorus	*>Label>Chorus	*>Label>Chorus	*>Label>Chorus
4G	sit	1r	.	1GM	newline	voice	.	65.277	G:maj
8G	on	.	.	.	.	.	.	.	.
8E	the	.	.	.	.	.	.	.	.
8G	dock	.	.	.	.	.	.	.	.
8G	of	.	.	.	.	.	.	.	.
8G	the	.	.	.	.	.	.	.	.
8A	bay	.	.	.	.	.	C	.	.
=30	=30	=30	=30	=30	=30	=30	=30	=30	=30
16G	_	1r	.	1Em	.	voice	.	67.609	E:min(9)
16E	_	.	.	.	.	.	.	.	.
8r	.	.	.	.	.	.	.	.	.
4r	.	.	.	.	.	.	.	.	.
8A	watch-	.	.	.	.	.	.	.	.
8B	-in	.	.	.	.	.	.	.	.
8B	the	.	.	.	.	.	.	.	.
16d	tide	.	.	.	.	.	.	.	.
16e	_	.	.	.	.	.	.	.	.
=31	=31	=31	=31	=31	=31	=31	=31	=31	=31
8d	_	1r	.	1GM	.	voice	.	69.942	G:maj
16B	_	.	.	.	.	.	.	.	.
16A	_	.	.	.	.	.	.	.	.
8G	_	.	.	.	.	.	.	.	.
8r	.	.	.	.	.	.	.	.	.
8B	roll	.	.	.	.	.	.	.	.
8A	_	.	.	.	.	.	.	.	.
8G	a-	.	.	.	.	.	.	.	.
8A	-way	.	.	.	.	.	C	.	.
=32	=32	=32	=32	=32	=32	=32	=32	=32	=32
16G	_	1r	.	1Em	.	voice	.	72.274	E:min(9)
16E	_	.	.	.	.	.	.	.	.
8r	.	.	.	.	.	.	.	.	.
8r	.	.	.	.	.	.	.	.	.
8r	.	.	.	.	.	.	.	.	.
4e	ooh	.	.	.	.	.	.	.	.
8A	_	.	.	.	.	.	.	.	.
8E	I'm	.	.	.	.	.	.	.	.
=33	=33	=33	=33	=33	=33	=33	=33	=33	=33
8G	sit-	1r	.	1GM	newline	voice	.	74.607	G:maj
8G	-tin	.	.	.	.	.	.	.	.
8G	on	.	.	.	.	.	.	.	.
8G	the	.	.	.	.	.	.	.	.
8G	dock	.	.	.	.	.	.	.	.
8G	of	.	.	.	.	.	.	.	.
8G	the	.	.	.	.	.	.	.	.
8A	bay	.	.	.	.	.	C	.	.
=34	=34	=34	=34	=34	=34	=34	=34	=34	=34
16G	_	1r	.	1AM	.	voice	.	76.932	A:maj
16E	_	.	.	.	.	.	.	.	.
8r	.	.	.	.	.	.	.	.	.
4r	.	.	.	.	.	.	.	.	.
8A	wast-	.	.	.	.	.	.	.	.
8G	_	.	.	.	.	.	.	.	.
8E	-in	.	.	.	.	.	.	.	.
[8G	time	.	.	.	.	.	.	.	.
=35	=35	=35	=35	=35	=35	=35	=35	=35	=35
4.G]	_	1r	.	1GM	.	voice	.	79.256	G:maj
16B	_	.	.	.	.	.	.	.	.
16A	_	.	.	.	.	.	.	.	.
4.G	_	.	.	.	.	.	.	.	.
[8E	_	.	.	.	.	.	.	.	.
=36	=36	=36	=36	=36	=36	=36	=36	=36	=36
2E]	_	1r	.	1EM	.	voice	.	81.581	E:maj
2r	.	.	.	.	.	.	.	.	.
=37	=37	=37	=37	=37	=37	=37	=37	=37	=37
*>Letter>D	*>Letter>D	*>Letter>D	*>Letter>D	*>Letter>D	*>Letter>D	*>Letter>D	*>Letter>D	*>Letter>D	*>Letter>D
*>Label>Bridge	*>Label>Bridge	*>Label>Bridge	*>Label>Bridge	*>Label>Bridge	*>Label>Bridge	*>Label>Bridge	*>Label>Bridge	*>Label>Bridge	*>Label>Bridge
4r	.	1r	.	2GM	newline	voice	.	83.905	G:maj
8r	.	.	.	.	.	.	.	.	.
8g	Look	.	.	.	.	.	.	.	.
4e	like	.	.	2DM	.	voice	.	85.061	D:maj
8r	.	.	.	.	.	.	.	.	.
8g	no-	.	.	.	.	.	.	.	.
=38	=38	=38	=38	=38	=38	=38	=38	=38	=38
8e	-thin's	1r	.	1CM	.	voice	.	86.216	C:maj
8e	gon-	.	.	.	.	.	.	.	.
8d	-na	.	.	.	.	.	.	.	.
16B	change	.	.	.	.	.	C	.	.
16A	_	.	.	.	.	.	.	.	.
8G	_	.	.	.	.	.	.	.	.
16A	_	.	.	.	.	.	.	.	.
[16B	_	.	.	.	.	.	.	.	.
8B]	_	.	.	.	.	.	.	.	.
16A	_	.	.	.	.	.	.	.	.
[16G	_	.	.	.	.	.	.	.	.
=39	=39	=39	=39	=39	=39	=39	=39	=39	=39
4G]	_	1r	.	2GM	.	voice	.	88.527	G:maj
8r	.	.	.	.	.	.	.	.	.
[8e	Ev	.	.	.	.	.	.	.	.
8e]	_	.	.	2DM	.	voice	.	89.682	D:maj
8d	-ry-	.	.	.	.	.	.	.	.
[4d	-thing	.	.	.	.	.	.	.	.
=40	=40	=40	=40	=40	=40	=40	=40	=40	=40
8d]	_	1r	.	1CM	.	voice	.	90.837	C:maj
16B	still	.	.	.	.	.	.	.	.
16A	_	.	.	.	.	.	.	.	.
8G	_	.	.	.	.	.	.	.	.
8G	re-	.	.	.	.	.	.	.	.
8B	-mains	.	.	.	.	.	C	.	.
8A	the	.	.	.	.	.	.	.	.
8A	same	.	.	.	.	.	C	.	.
[8G	_	.	.	.	.	.	.	.	.
=41	=41	=41	=41	=41	=41	=41	=41	=41	=41
8G]	_	1r	.	2GM	newline	voice	.	93.148	G:maj
8r	.	.	.	.	.	.	.	.	.
8r	.	.	.	.	.	.	.	.	.
8g	I	.	.	.	.	.	.	.	.
8e	can't	.	.	2DM	.	voice	.	94.315	D:maj
8.e	do	.	.	.	.	.	.	.	.
[16d	what	.	.	.	.	.	.	.	.
8d]	_	.	.	.	.	.	.	.	.
=42	=42	=42	=42	=42	=42	=42	=42	=42	=42
8g	ten	1r	.	2CM	.	voice	.	95.483	C:maj
8e	peop-	.	.	.	.	.	.	.	.
8d	-le	.	.	.	.	.	.	.	.
8e	tell	.	.	.	.	.	.	.	.
8d	me	.	.	2GM	.	voice	.	96.65	G:maj
8B	to	.	.	.	.	.	.	.	.
8A	do	.	.	.	.	.	.	.	.
8G	_	.	.	.	.	.	.	.	.
=43	=43	=43	=43	=43	=43	=43	=43	=43	=43
4r	.	1r	.	1FM	.	voice	.	97.817	F:maj
8f	so	.	.	.	.	.	.	.	.
8f	I	.	.	.	.	.	.	.	.
8f	guess	.	.	.	.	.	.	.	.
8f	I'll	.	.	.	.	.	.	.	.
8d	re-	.	.	.	.	.	.	.	.
16f	-main	.	.	.	.	.	.	.	.
16e	_	.	.	.	.	.	.	.	.
=44	=44	=44	=44	=44	=44	=44	=44	=44	=44
8d	_	1r	.	1DM	.	voice	.	100.152	D:maj
8B	the	.	.	.	.	.	.	.	.
16f	same	.	.	.	.	.	C	.	.
16e	_	.	.	.	.	.	.	.	.
[8d	_	.	.	.	.	.	.	.	.
8d]	_	.	.	.	.	.	.	.	.
8r	.	.	.	.	.	.	.	.	.
4r	.	.	.	.	.	.	.	.	.
=45	=45	=45	=45	=45	=45	=45	=45	=45	=45
*>Letter>B	*>Letter>B	*>Letter>B	*>Letter>B	*>Letter>B	*>Letter>B	*>Letter>B	*>Letter>B	*>Letter>B	*>Letter>B
*>Label>Verse	*>Label>Verse	*>Label>Verse	*>Label>Verse	*>Label>Verse	*>Label>Verse	*>Label>Verse	*>Label>Verse	*>Label>Verse	*>Label>Verse
8E	sit-	1r	.	1GM	newline	voice	.	102.486	G:maj
8G	-tin	.	.	.	.	.	.	.	.
4G	here	.	.	.	.	.	.	.	.
8A	rest-	.	.	.	.	.	.	.	.
8G	-ing	.	.	.	.	.	.	.	.
8G	my	.	.	.	.	.	.	.	.
8B-	bones	.	.	.	.	.	D	.	.
=46	=46	=46	=46	=46	=46	=46	=46	=46	=46
8B	_	1r	.	1BM	.	voice	.	104.809	B:maj
16B	_	.	.	.	.	.	.	.	.
16A	_	.	.	.	.	.	.	.	.
8G	_	.	.	.	.	.	.	.	.
8r	.	.	.	.	.	.	.	.	.
8r	.	.	.	.	.	.	.	.	.
8G	and	.	.	.	.	.	.	.	.
8B	this	.	.	.	.	.	.	.	.
[8c	lone-	.	.	.	.	.	D	.	.
=47	=47	=47	=47	=47	=47	=47	=47	=47	=47
8c]	_	1r	.	1CM	.	voice	.	107.131	C:maj
8c	-li-	.	.	.	.	.	.	.	.
8c	-ness	.	.	.	.	.	.	.	.
8c	won't	.	.	.	.	.	.	.	.
8c	leave	.	.	.	.	.	.	.	.
8B	me	.	.	.	.	.	.	.	.
8B	a-	.	.	.	.	.	.	.	.
8B	-lone	.	.	.	.	.	D	.	.
=48	=48	=48	=48	=48	=48	=48	=48	=48	=48
4A	_	1r	.	1AM	.	voice	.	109.454	A:maj
4r	.	.	.	.	.	.	.	.	.
2r	.	.	.	.	.	.	.	.	.
=49	=49	=49	=49	=49	=49	=49	=49	=49	=49
8G	Two	1r	.	1GM	newline	voice	.	111.777	G:maj
4G	thou-	.	.	.	.	.	.	.	.
8G	-sand	.	.	.	.	.	.	.	.
8A	miles	.	.	.	.	.	.	.	.
16G	_	.	.	.	.	.	.	.	.
16E	_	.	.	.	.	.	.	.	.
8G	I	.	.	.	.	.	.	.	.
8B-	roamed	.	.	.	.	.	D	.	.
=50	=50	=50	=50	=50	=50	=50	=50	=50	=50
8B	_	1r	.	1BM	.	voice	.	114.106	B:maj
16B	_	.	.	.	.	.	.	.	.
16A	_	.	.	.	.	.	.	.	.
8G	_	.	.	.	.	.	.	.	.
8r	.	.	.	.	.	.	.	.	.
8r	.	.	.	.	.	.	.	.	.
8r	.	.	.	.	.	.	.	.	.
8B	just	.	.	.	.	.	.	.	.
8B	to	.	.	.	.	.	.	.	.
=51	=51	=51	=51	=51	=51	=51	=51	=51	=51
4c	make	1r	.	1CM	.	voice	.	116.436	C:maj
4c	this	.	.	.	.	.	.	.	.
8c	dock	.	.	.	.	.	.	.	.
8B	my	.	.	.	.	.	.	.	.
8B-	_	.	.	.	.	.	.	.	.
[8A	home	.	.	.	.	.	D	.	.
=52	=52	=52	=52	=52	=52	=52	=52	=52	=52
8A]	_	1r	.	1AM	.	voice	.	118.766	A:maj
8r	.	.	.	.	.	.	.	.	.
8r	.	.	.	.	.	.	.	.	.
16B	Now	.	.	.	.	.	.	.	.
16A	_	.	.	.	.	.	.	.	.
8G	_	.	.	.	.	.	.	.	.
8G	I'm	.	.	.	.	.	.	.	.
8G	just	.	.	.	.	.	.	.	.
8E	gon'	.	.	.	.	.	.	.	.
=53	=53	=53	=53	=53	=53	=53	=53	=53	=53
*>Letter>C	*>Letter>C	*>Letter>C	*>Letter>C	*>Letter>C	*>Letter>C	*>Letter>C	*>Letter>C	*>Letter>C	*>Letter>C
*>Label>Chorus	*>Label>Chorus	*>Label>Chorus	*>Label>Chorus	*>Label>Chorus	*>Label>Chorus	*>Label>Chorus	*>Label>Chorus	*>Label>Chorus	*>Label>Chorus
4G	sit	1r	.	1GM	newline	voice	.	121.096	G:maj
8G	at	.	.	.	.	.	.	.	.
8E	the	.	.	.	.	.	.	.	.
8G	dock	.	.	.	.	.	.	.	.
8G	of	.	.	.	.	.	.	.	.
8G	the	.	.	.	.	.	.	.	.
8A	bay	.	.	.	.	.	C	.	.
=54	=54	=54	=54	=54	=54	=54	=54	=54	=54
16G	_	1r	.	1Em	.	voice	.	123.4	E:min(9)
16E	_	.	.	.	.	.	.	.	.
8r	.	.	.	.	.	.	.	.	.
4r	.	.	.	.	.	.	.	.	.
8A	watch-	.	.	.	.	.	.	.	.
8B	-ing	.	.	.	.	.	.	.	.
8B	the	.	.	.	.	.	.	.	.
16d	tide	.	.	.	.	.	.	.	.
16e	_	.	.	.	.	.	.	.	.
=55	=55	=55	=55	=55	=55	=55	=55	=55	=55
8d	_	1r	.	1GM	.	voice	.	125.705	G:maj
16B	_	.	.	.	.	.	.	.	.
16A	_	.	.	.	.	.	.	.	.
8G	_	.	.	.	.	.	.	.	.
8r	.	.	.	.	.	.	.	.	.
8B	roll	.	.	.	.	.	.	.	.
8A	_	.	.	.	.	.	.	.	.
8G	a-	.	.	.	.	.	.	.	.
8A	-way	.	.	.	.	.	C	.	.
=56	=56	=56	=56	=56	=56	=56	=56	=56	=56
16G	_	1r	.	1Em	.	voice	.	128.009	E:min(9)
16E	_	.	.	.	.	.	.	.	.
8r	.	.	.	.	.	.	.	.	.
8r	.	.	.	.	.	.	.	.	.
8r	.	.	.	.	.	.	.	.	.
4e	ooh	.	.	.	.	.	.	.	.
16B	wee	.	.	.	.	.	.	.	.
16A	_	.	.	.	.	.	.	.	.
8G	_	.	.	.	.	.	.	.	.
=57	=57	=57	=57	=57	=57	=57	=57	=57	=57
8G	sit-	1r	.	1GM	newline	voice	.	130.313	G:maj
8G	-tin	.	.	.	.	.	.	.	.
8G	on	.	.	.	.	.	.	.	.
8G	the	.	.	.	.	.	.	.	.
8G	dock	.	.	.	.	.	.	.	.
8G	of	.	.	.	.	.	.	.	.
8G	the	.	.	.	.	.	.	.	.
8A	bay	.	.	.	.	.	C	.	.
=58	=58	=58	=58	=58	=58	=58	=58	=58	=58
16G	_	1r	.	1AM	.	voice	.	132.638	A:maj
16E	_	.	.	.	.	.	.	.	.
8r	.	.	.	.	.	.	.	.	.
4r	.	.	.	.	.	.	.	.	.
8A	wast-	.	.	.	.	.	.	.	.
8G	_	.	.	.	.	.	.	.	.
8E	-in	.	.	.	.	.	.	.	.
[8G	time	.	.	.	.	.	.	.	.
=59	=59	=59	=59	=59	=59	=59	=59	=59	=59
4.G]	_	1r	.	1GM	.	voice	.	134.963	G:maj
16B	_	.	.	.	.	.	.	.	.
16A	_	.	.	.	.	.	.	.	.
4.G	_	.	.	.	.	.	.	.	.
[8E	_	.	.	.	.	.	.	.	.
=60	=60	=60	=60	=60	=60	=60	=60	=60	=60
4E]	_	2r	.	1EM	.	voice	.	137.288	E:maj
4r	.	.	.	.	.	.	.	.	.
4r	.	4r	.	.	.	.	.	.	.
8r	.	8r	.	.	.	.	.	.	.
*	*	*Hstimme	*	*	*	*	*	*	*
!	!	!Whistling	!	!	!	!	!	!	!
8r	.	8ee	_	.	.	.	.	.	.
=61	=61	=61	=61	=61	=61	=61	=61	=61	=61
*>Letter>A2	*>Letter>A2	*>Letter>A2	*>Letter>A2	*>Letter>A2	*>Letter>A2	*>Letter>A2	*>Letter>A2	*>Letter>A2	*>Letter>A2
*>Label>Outro	*>Label>Outro	*>Label>Outro	*>Label>Outro	*>Label>Outro	*>Label>Outro	*>Label>Outro	*>Label>Outro	*>Label>Outro	*>Label>Outro
1r	.	4gg	_	1GM	newline	voice	.	139.613	G:maj
.	.	4ee	_	.	.	.	.	.	.
.	.	8dd	_	.	.	.	.	.	.
.	.	4b	_	.	.	.	.	.	.
.	.	8b-	_	.	.	.	.	.	.
=62	=62	=62	=62	=62	=62	=62	=62	=62	=62
8r	.	8b	_	1GM	.	voice	.	141.932	G:maj
8r	.	8a	_	.	.	.	.	.	.
4r	.	8b	_	.	.	.	.	.	.
.	.	8a	_	.	.	.	.	.	.
2r	.	8a	_	.	.	.	.	.	.
.	.	4g	_	.	.	.	.	.	.
.	.	8a	_	.	.	.	.	.	.
=63	=63	=63	=63	=63	=63	=63	=63	=63	=63
1r	.	8b	_	1GM	.	voice	.	144.251	G:maj
.	.	8a	_	.	.	.	.	.	.
.	.	8b	_	.	.	.	.	.	.
.	.	8a	_	.	.	.	.	.	.
.	.	8a	_	.	.	.	.	.	.
.	.	8g	_	.	.	.	.	.	.
.	.	8a	_	.	.	.	.	.	.
.	.	8a	_	.	.	.	.	.	.
=64	=64	=64	=64	=64	=64	=64	=64	=64	=64
1r	.	8b	_	1Em	.	voice	.	146.571	E:min
.	.	8dd	_	.	.	.	.	.	.
.	.	4dd	_	.	.	.	.	.	.
.	.	4.b	_	.	.	.	.	.	.
.	.	8ee	_	.	.	.	.	.	.
=65	=65	=65	=65	=65	=65	=65	=65	=65	=65
*>Label>>Fadeout	*>Label>>Fadeout	*>Label>>Fadeout	*>Label>>Fadeout	*>Label>>Fadeout	*>Label>>Fadeout	*>Label>>Fadeout	*>Label>>Fadeout	*>Label>>Fadeout	*>Label>>Fadeout
1r	.	4gg	_	1GM	newline	voice	.	148.89	G:maj
.	.	4ee	_	.	.	.	.	.	.
.	.	8dd	_	.	.	.	.	.	.
.	.	8b	_	.	.	.	.	.	.
.	.	8b-	_	.	.	.	.	.	.
.	.	8b-	_	.	.	.	.	.	.
=66	=66	=66	=66	=66	=66	=66	=66	=66	=66
1r	.	8b	_	1GM	.	voice	.	151.216	G:maj
.	.	8a	_	.	.	.	.	.	.
.	.	8b	_	.	.	.	.	.	.
.	.	8a	_	.	.	.	.	.	.
.	.	8a	_	.	.	.	.	.	.
.	.	4g	_	.	.	.	.	.	.
.	.	8a	_	.	.	.	.	.	.
=67	=67	=67	=67	=67	=67	=67	=67	=67	=67
1r	.	8b	_	1GM	.	voice	.	153.543	G:maj
.	.	8dd	_	.	.	.	.	.	.
.	.	8b	_	.	.	.	.	.	.
.	.	8a	_	.	.	.	.	.	.
.	.	8a	_	.	.	.	.	.	.
.	.	8g	_	.	.	.	.	.	.
.	.	8a	_	.	.	.	.	.	.
.	.	8a	_	.	.	.	.	.	.
=68	=68	=68	=68	=68	=68	=68	=68	=68	=68
1r	.	8b	_	1Em	.	voice	.	155.869	E:min
.	.	8dd	_	.	.	.	.	.	.
.	.	4dd	_	.	.	.	.	.	.
.	.	4.b	_	.	.	.	.	.	.
.	.	8r	.	.	.	.	.	.	.
r;	.	r;	.	1r;	.	r	.	159.359	N.C.
r;	.	r;	.	1r;	.	r	.	164.78	N.C.
*-	*-	*-	*-	*-	*-	*-	*-	*-	*-
!!!BillboardChartDate: 1968/03/23
!!!BillboardPeak: 1
!!!BillboardWeeksOnChart: 16
!!!COC: Otis Redding
!!!ENC: Nathaniel Condit-Schultz
!!!EST: Awating manual error checking and editing.
!!!OTL: (Sittin' On) The Dock Of The Bay
!!!RDF**chordsym: original McGill chord annotation + (implied pitch class set, with bass pitch in first position)
!!!RDF**harmony: **recip + pitch class of root + harmonic quality
!!!RDF**leadinstrument: original McGill primary instrumentation annotation
!!!RDF**phrase: newline = linebreak in original McGill transcription
!!!RDF**timestamp: McGill audio timestamp in seconds
!!!RDT: 2017/01/12/
!!!SampleActualRank: 1
!!!SampleID#: 0645
!!!SampleTargetRank: 1
